images/favicon-mini.svg

<svg width="32" height="32" viewBox="0 0 32 32" fill="none" xmlns="http://www.w3.org/2000/svg">
<g clip-path="url(#clip0_943_3530)">
<circle cx="16" cy="16" r="16" fill="#E84D37"/>
<path d="M15.9667 8.50247C14.8403 8.5022 13.7335 8.78149 12.7574 9.31234C11.7812 9.84319 10.97 10.607 10.4048 11.5272C9.83971 12.4473 9.54057 13.4916 9.5374 14.5554C9.53423 15.6191 9.82713 16.6649 10.3868 17.5881C9.99856 17.6405 9.63346 17.7939 9.33238 18.0311C9.0313 18.2684 8.80614 18.5802 8.68212 18.9315C8.55811 19.2828 8.54014 19.6598 8.63023 20.0202C8.72032 20.3806 8.91491 20.7102 9.1922 20.972C9.46949 21.2339 9.81851 21.4177 10.2002 21.5027C10.5818 21.5878 10.981 21.5708 11.353 21.4537C11.7251 21.3366 12.0552 21.124 12.3064 20.8397C12.5577 20.5553 12.7201 20.2106 12.7756 19.844C12.8551 19.8869 12.9369 19.9277 13.0188 19.9684C13.1325 20.6294 13.4915 21.2306 14.0316 21.6645C14.5717 22.0983 15.2576 22.3366 15.9667 22.3366C16.6758 22.3366 17.3617 22.0983 17.9018 21.6645C18.4419 21.2306 18.801 20.6294 18.9146 19.9684C18.9965 19.9277 19.0783 19.8869 19.1578 19.844C19.2131 20.2109 19.3757 20.556 19.6271 20.8406C19.8786 21.1252 20.2091 21.3379 20.5815 21.455C20.9539 21.572 21.3535 21.5887 21.7354 21.5032C22.1173 21.4177 22.4664 21.2334 22.7435 20.9709C23.0206 20.7085 23.2148 20.3783 23.3042 20.0174C23.3937 19.6565 23.3748 19.2792 23.2498 18.9279C23.1248 18.5766 22.8986 18.2651 22.5965 18.0284C22.2945 17.7918 21.9286 17.6393 21.5398 17.5881C22.0992 16.6654 22.3921 15.6202 22.3892 14.557C22.3863 13.4938 22.0878 12.4499 21.5235 11.5299C20.9591 10.6099 20.1488 9.84606 19.1736 9.31475C18.1984 8.78344 17.0926 8.50333 15.9667 8.50247ZM15.9667 7C17.2288 6.99927 18.4732 7.27995 19.5988 7.8192C20.7243 8.35846 21.6991 9.14106 22.4438 10.1033C23.1885 11.0655 23.6821 12.1802 23.8845 13.3567C24.0868 14.5331 23.9921 15.738 23.6082 16.8734C24.3523 17.4336 24.8388 18.2433 24.9666 19.1338C25.0943 20.0244 24.8533 20.9271 24.2938 21.6541C23.7343 22.381 22.8995 22.8762 21.9631 23.0364C21.0267 23.1966 20.0609 23.0095 19.2669 22.5141C18.8382 22.9342 18.3242 23.2684 17.7556 23.4967C17.187 23.7249 16.5755 23.8426 15.9576 23.8426C15.3398 23.8426 14.7283 23.7249 14.1596 23.4967C13.591 23.2684 13.077 22.9342 12.6483 22.5141C11.854 22.9808 10.9018 23.1457 9.98383 22.9756C9.06584 22.8054 8.25034 22.3128 7.70185 21.5971C7.15336 20.8814 6.91269 19.9959 7.02838 19.1193C7.14408 18.2426 7.60753 17.44 8.32526 16.8734C7.9413 15.738 7.84663 14.5331 8.04896 13.3567C8.2513 12.1802 8.74491 11.0655 9.48963 10.1033C10.2344 9.14106 11.2091 8.35846 12.3347 7.8192C13.4602 7.27995 14.7046 6.99927 15.9667 7Z" fill="white"/>
<path d="M10.6868 23.9156C11.3126 23.9143 11.9315 23.7916 12.5051 23.5551C12.5892 23.6194 12.6778 23.6774 12.7665 23.7375L12.646 23.8491L13.5324 24.6862L13.912 24.3278C14.0688 24.3857 14.2279 24.4372 14.3916 24.4823L13.8552 24.9888L14.7393 25.8259L15.6303 24.9888L15.278 24.6561C15.5042 24.6834 15.7319 24.6977 15.9599 24.6991C16.181 24.6986 16.402 24.685 16.6213 24.6583L16.2713 24.9888L17.1577 25.8259L18.0441 24.9888L17.5123 24.4866C17.6741 24.4428 17.8334 24.3912 17.9896 24.332L18.3714 24.6862L19.2669 23.8491L19.1556 23.7439C19.2488 23.6817 19.3397 23.6216 19.4283 23.5551C20.0019 23.7916 20.6208 23.9143 21.2466 23.9156C21.2921 23.9156 21.3375 23.9156 21.383 23.9156C21.4002 24.0326 21.3878 24.1518 21.3466 24.2634L16.7145 36.5235C16.7094 36.5382 16.7033 36.5525 16.6963 36.5664C16.6901 36.5814 16.6825 36.5957 16.6736 36.6094C16.6577 36.6394 16.6395 36.6673 16.6213 36.6952L16.6008 36.7231C16.5729 36.7585 16.5417 36.7915 16.5077 36.8218L16.4849 36.839L16.3963 36.9034L16.3554 36.9249C16.3239 36.9413 16.2912 36.9557 16.2576 36.9678H16.2326L16.1417 36.9893H16.1054C16.0212 37.0036 15.935 37.0036 15.8508 36.9893H15.8122L15.7235 36.9678H15.6849C15.6522 36.9553 15.6203 36.9409 15.5894 36.9249L15.5485 36.9013C15.5166 36.8837 15.4869 36.8628 15.4599 36.839L15.4349 36.8218C15.4014 36.791 15.3703 36.758 15.3417 36.7231L15.3235 36.6952C15.3032 36.6679 15.2849 36.6392 15.2689 36.6094L15.228 36.5235L10.5868 24.2569C10.5446 24.1456 10.5321 24.0262 10.5504 23.9092C10.5959 23.9092 10.63 23.9156 10.6868 23.9156ZM13.8688 27.2704L14.7553 28.1075L15.6303 27.2704L14.7462 26.4334L13.8688 27.2704ZM16.844 28.4102L15.9576 27.5731L15.0712 28.4102L15.9576 29.2473L16.844 28.4102ZM15.0712 30.6918L15.9576 31.5289L16.844 30.6918L15.9576 29.8547L15.0712 30.6918ZM15.9576 25.2936L15.0712 26.1307L15.9576 26.9614L16.844 26.1243L15.9576 25.2936ZM16.2781 27.2704L17.1645 28.1075L18.0509 27.2704L17.1645 26.4334L16.2781 27.2704ZM19.667 24.2355L19.5806 24.1539L18.6942 24.9888L19.201 25.4589L19.667 24.2355ZM19.0397 25.9161L18.3805 25.2936L17.4964 26.1307L18.3714 26.9614L18.7783 26.5772L19.0397 25.9161ZM18.3964 27.6053L18.3714 27.5817L17.4873 28.4188L17.9305 28.848L18.3964 27.6053ZM17.4486 30.1273L17.7714 29.2687L17.1736 28.7064L16.2872 29.5435L17.1645 30.3956L17.4486 30.1273ZM16.669 32.1921L17.0941 31.0717L16.2872 31.8315L16.669 32.1921ZM15.9758 34.0294L16.5008 32.6385L15.9667 32.1341L15.4462 32.6257L15.9758 34.0294ZM15.2757 32.1792L15.6303 31.8315L14.8553 31.0974L15.2757 32.1792ZM14.4939 30.1552L14.7507 30.3956L15.6303 29.5499L14.7462 28.715L14.162 29.2644L14.4939 30.1552ZM13.9893 28.818L14.4189 28.4102L13.5324 27.5731V27.5838L13.9893 28.818ZM13.1551 26.6094L13.5415 26.9614L14.428 26.1243L13.5415 25.2872L12.9029 25.9032L13.1551 26.6094ZM12.7278 25.4589L13.2211 24.991L12.3346 24.1539L12.2619 24.2226L12.7278 25.4589Z" fill="white"/>
</g>
<defs>
<clipPath id="clip0_943_3530">
<rect width="32" height="32" rx="16" fill="white"/>
</clipPath>
</defs>
</svg>

<svg xmlns="http://www.w3.org/2000/svg" width="32" height="32" fill="none"><g clip-path="url(#a)"><circle cx="16" cy="16" r="16" fill="#E84D37"/><path fill="#fff" d="M15.967 8.502a6.722 6.722 0 0 0-3.21.81 6.263 6.263 0 0 0-2.352 2.215 5.813 5.813 0 0 0-.868 3.028 5.81 5.81 0 0 0 .85 3.033 2.174 2.174 0 0 0-1.055.443c-.3.237-.526.55-.65.9a1.888 1.888 0 0 0-.052 1.09c.09.36.285.69.562.951.277.262.627.446 1.008.53.382.086.781.069 1.153-.048a2.12 2.12 0 0 0 .953-.614c.252-.285.414-.63.47-.996.08.043.16.084.243.124a2.786 2.786 0 0 0 1.013 1.697c.54.433 1.226.672 1.935.672.709 0 1.395-.239 1.935-.672.54-.434.899-1.036 1.013-1.697.082-.04.163-.081.243-.124.055.367.218.712.47.997.25.284.581.497.953.614.373.117.773.134 1.154.048.382-.085.731-.27 1.009-.532.277-.262.47-.593.56-.954.09-.36.07-.738-.054-1.09a1.995 1.995 0 0 0-.654-.899 2.174 2.174 0 0 0-1.056-.44 5.81 5.81 0 0 0 .85-3.031 5.814 5.814 0 0 0-.867-3.027 6.262 6.262 0 0 0-2.35-2.215 6.721 6.721 0 0 0-3.206-.813Zm0-1.502c1.262 0 2.506.28 3.632.82a7.915 7.915 0 0 1 2.845 2.283 7.352 7.352 0 0 1 1.44 3.254 7.169 7.169 0 0 1-.276 3.516 3.45 3.45 0 0 1 1.359 2.26 3.344 3.344 0 0 1-.673 2.521 3.728 3.728 0 0 1-2.33 1.382 3.874 3.874 0 0 1-2.697-.522c-.429.42-.943.754-1.511.983a4.831 4.831 0 0 1-3.596 0 4.614 4.614 0 0 1-1.512-.983 3.88 3.88 0 0 1-2.664.462 3.724 3.724 0 0 1-2.282-1.379 3.345 3.345 0 0 1-.674-2.478c.116-.876.58-1.679 1.297-2.246a7.168 7.168 0 0 1-.276-3.516 7.351 7.351 0 0 1 1.44-3.254 7.915 7.915 0 0 1 2.846-2.284A8.403 8.403 0 0 1 15.967 7Z"/><path fill="#fff" d="M10.687 23.916a4.8 4.8 0 0 0 1.818-.36c.084.063.173.121.261.181l-.12.112.886.837.38-.358c.157.058.316.11.48.154l-.537.507.884.837.891-.837-.352-.333c.226.027.454.042.682.043.221 0 .442-.014.661-.04l-.35.33.887.837.886-.837-.532-.502c.162-.044.321-.096.478-.155l.381.354.896-.837-.111-.105c.093-.062.184-.122.272-.189a4.8 4.8 0 0 0 1.819.36h.136a.706.706 0 0 1-.036.348l-4.633 12.26a.352.352 0 0 1-.018.043.264.264 0 0 1-.022.043c-.016.03-.034.058-.053.086l-.02.028a.775.775 0 0 1-.093.099l-.023.017-.089.064-.04.022a.796.796 0 0 1-.098.043h-.025l-.091.021h-.037a.76.76 0 0 1-.254 0h-.039l-.088-.021h-.04a.93.93 0 0 1-.095-.043l-.04-.024a.497.497 0 0 1-.09-.062l-.024-.017a.964.964 0 0 1-.093-.099l-.019-.028a.695.695 0 0 1-.054-.086l-.041-.086-4.641-12.266a.682.682 0 0 1-.037-.348c.046 0 .08.007.137.007Zm3.182 3.354.886.838.875-.838-.884-.837-.877.837Zm2.975 1.14-.886-.837-.887.837.887.837.886-.837Zm-1.773 2.282.887.837.886-.837-.886-.837-.887.837Zm.887-5.398-.887.837.887.83.886-.837-.886-.83Zm.32 1.976.887.838.886-.838-.886-.837-.887.837Zm3.389-3.035-.086-.081-.887.835.507.47.466-1.224Zm-.627 1.681-.66-.622-.884.837.875.83.407-.384.262-.66Zm-.644 1.69-.025-.024-.884.837.444.429.465-1.243Zm-.947 2.521.322-.858-.597-.563-.887.838.878.852.284-.269Zm-.78 2.065.425-1.12-.807.76.382.36Zm-.693 1.837.525-1.39-.534-.505-.52.492.529 1.403Zm-.7-1.85.354-.348-.775-.734.42 1.082Zm-.782-2.024.257.24.88-.845-.885-.835-.584.55.332.89Zm-.505-1.337.43-.408-.887-.837v.01l.457 1.235Zm-.834-2.209.386.352.887-.837-.887-.837-.638.616.252.706Zm-.427-1.15.493-.468-.886-.837-.073.069.466 1.236Z"/></g><defs><clipPath id="a"><rect width="32" height="32" fill="#fff" rx="16"/></clipPath></defs></svg>
